X:61
T:Tailor's Twist
Z: id:dc-hornpipe-62
M:C|
L:1/8
K:D Major
BAF|DA,FD AFdA|Bged cbag|fedc Bged|(3cdc (3BcB (3ABA (3GFE|!
DA,FD AFdA|Bged cbag|fedc Bgec|d2dc d:|!
efg|a^gaf defa|bagf eAce|gfge cdef|(3gag (3fgf egfe|!
dfec dAFA|Bged cbag|fedc Bgec|d2dc d:|!

